X: 36
T:Olly's New Beanbag
M:Jig
R:6/8
L:1/8
C:Steve Mansfield, Whaley Bridge, UK, http://www.lesession.co.uk
N:This tune happened to come to me on the day we had bought
N: new dog beds for our lurchers. Olly insists on beating her
N: bedding up before lying down on it.
Z:Steve Mansfield 20070807
K:D
DDD AFd | zfe dBA | FEE EFA | B2A Bcd | DDD AFd | zfe dBA |
FEE AFE | DED D3 :: D2A AGF | EFG FED | D2A AGF |
ABd efg | fgf efe | ded BAF | fed BAF | EFE D3 :|

